!!!COM:	Bach, Johann Sebastian
!!!OMV:	Christ, unser Herr zum Jordan kam
!!!OTL:	Christ, unser Herr zum Jordan kam
**recip	**kern	**fb	**kern	**kern	**kern	**kern
*	*part5	*part5	*part4	*part3	*part2	*part1
*	*staff5	*	*staff4	*staff3	*staff2	*staff1
*	*I"Continuo	*	*I"Voice	*I"Voice	*I"Voice	*I"Voice
*	*I'Cont.	*	*I'V	*I'V	*I'V	*I'V
*	*clefF4	*	*clefF4	*clefGv2	*clefG2	*clefG2
*	*Trd0c0	*	*	*	*	*
*	*k[b-e-]	*	*k[b-e-]	*k[b-e-]	*k[b-e-]	*k[b-e-]
*	*M4/4	*	*M4/4	*M4/4	*M4/4	*M4/4
8	4BB-	5	4BB-	4B-	4d	8fL
8	.	6	.	.	.	8gJ
=2	=2	=2	=2	=2	=2	=2
8	4F	5 -	4F	4A-X	8cL	4a-X
8	.	6	.	.	8dJ	.
4	4E-	.	4E-	4G	4e-	4b-
8	4A-X	5	4A-X	4A-	8e-L	4cc
8	.	6	.	.	8fJ	.
8	8GL	6	8GL	8e-L	4g	4b-
8	8FJ	6 4 2	8FJ	8dJ	.	.
=3	=3	=3	=3	=3	=3	=3
8	8E-L	6	8E-L	4c	4g	4ee-
8	8FJ	.	8FJ	.	.	.
8	4G	n	4G	4Bn	4g	8ddL
8	.	.	.	.	.	8ccJ
4	4C;	.	4C;	4e-;	4g;	4cc;
4	4G	.	4G	4d	4g	4b-
=4	=4	=4	=4	=4	=4	=4
4	4c	.	4c	4c	4g	4ee-
8	4B-	6	4B-	8dL	4g	4dd
8	.	.	.	8enJ	.	.
8	4A-X	8	4A-X	4f	8a-XL	4cc
8	.	7	.	.	8gJ	.
8	8DL	6	8DL	8FL	4f	4b-
8	8EnJ	6 5	8EnJ	8GJ	.	.
=5	=5	=5	=5	=5	=5	=5
8	4F	.	4F	8A-XL	8c	4a-X
8	.	.	.	8B-J	4f	.
8	4C	4	4C	4c	.	4g
8	.	n	.	.	8en	.
4	4FF;	-	4F;	4A-;	4c;	4f;
8	8FL	-	8FL	8A-L	4c	8fL
8	8E-J	.	8E-J	8GJ	.	8gJ
=6	=6	=6	=6	=6	=6	=6
!!linebreak:original
8	8D-XL	.	8D-XL	8FL	4f	4a-X
8	8CJ	.	8CJ	8A-XJ	.	.
8	4BB-	5 -	4BB-	4d-X	4g	4b-
8	.	6	.	.	.	.
4	4AA-X	.	4AA-X	4e-	4a-X	4cc
8	8E-L	5	8E-L	8e-L	4g	4b-
8	8DnJ	.	8DnJ	8fJ	.	.
=7	=7	=7	=7	=7	=7	=7
4	4C	.	4C	4g	4cc	4ee-
8	4G	n	4G	4g	4bn	8ddnL
8	.	.	.	.	.	8ccJ
4	4c;	.	4c;	4e-;	4g;	4cc;
4	4G	.	4G	4dn	4g	4b-
=8	=8	=8	=8	=8	=8	=8
8	4C	.	4C	4c	8gL	4ee-
8	.	.	.	.	8ccJ	.
8	8DL	7	8DL	8FL	8ccL	4dd
8	8EnJ	7 -r5	8EnJ	8GJ	8b-J	.
8	4F	4	4F	4A-X	8b-L	4cc
8	.	-	.	.	8a-XJ	.
8	4D-X	6 4 3	4D-X	4B-	8gL	4b-
8	.	.	.	.	8enJ	.
=9	=9	=9	=9	=9	=9	=9
8	8CL	-r6 4	8CL	4c	4f	4a-X
8	8BB-J	.	8BB-J	.	.	.
8	4C	5 n	4C	8B-L	4en	4g
8	.	.	.	8A-XJ	.	.
4	4FF;	-	4FF;	4A-;	4c;	4f;
8	8FL	-	8FL	8A-L	4c	4f
8	8E-J	.	8E-J	8GJ	.	.
=10	=10	=10	=10	=10	=10	=10
8	8DL	6	8DnL	4F	4f	4b-
8	8CJ	.	8CJ	.	.	.
8	4BB-	5 4	4BB-	4B-	8e-L	4b-
8	.	3	.	.	8dJ	.
8	4E-	.	4E-	4B-	8e-L	4g
8	.	.	.	.	8fJ	.
8	8DL	7 4 2	8DL	4e-	4g	4cc
8	8CJ	.	8CJ	.	.	.
=11	=11	=11	=11	=11	=11	=11
!!pagebreak:original
8	4G	5 4	4G	8dL	4g	4cc
8	.	.	.	8cJ	.	.
4	4GG	n	4GG	4d	4g	4bn
4	4C;	.	4C;	4e-;	4g;	4cc;
8	8cL	.	8cL	4e-	4g	4cc
8	8B-J	.	8B-J	.	.	.
=12	=12	=12	=12	=12	=12	=12
4	4A	6 5	4An	4e-	4cc	4ff
4	4B-	.	4B-	4d	4b-	4ff
8	4E-	8	4E-	8e-L	4b-	8ggL
8	.	7	.	8dJ	.	8ffJ
8	8A-XL	5	8A-XL	4c	8ccL	4ee-
8	8GJ	.	8GJ	.	8b-J	.
=13	=13	=13	=13	=13	=13	=13
8	4F	6 8 -	4F	8dL	4a-X	8ffL
8	.	5 7	.	8cJ	.	8ee-J
8	4G	4	4G	4Bn	8d	4dd
16	.	n	.	.	16e-LL	.
16	.	.	.	.	16fJJ	.
4	4C;	.	4C;	4G;	4e-;	4cc;
4	4G	n	4G	4B	4g	4dd
=14	=14	=14	=14	=14	=14	=14
8	4c	.	4c	8cL	4g	4ee-
8	.	.	.	8B-J	.	.
8	8FL	6 -	8FL	8A-XL	4f	4dd
8	8GJ	6 5	8GJ	8B-J	.	.
8	4A-X	5	4A-X	8cL	8e-L	4cc
8	.	6	.	8dJ	8fJ	.
8	8GL	nr6	8GL	8enL	4g	4b-
8	8FJ	6 4 2	8FJ	8fJ	.	.
=15	=15	=15	=15	=15	=15	=15
8	4En	6	4En	4g	4c	8ccL
8	.	5	.	.	.	8b-J
4	4F	-	4F	4c	4f	4a-X
4	4C;	n	4C;	4c;	4en;	4g;
8	8FL	-	8FL	8A-XL	4c	8fL
8	8E-XJ	.	8E-XJ	8GJ	.	8gJ
=16	=16	=16	=16	=16	=16	=16
!!linebreak:original
8	8D-XL	.	8D-XL	8FL	4f	4a-X
8	8CJ	.	8CJ	8A-XJ	.	.
4	4BB-	6 -	4BB-	4d-X	4g	4b-
8	4AA-X	7	4AA-X	4c	8gL	8ccL
8	.	.	.	.	8enJ	8b-J
8	8D-L	-r5	8D-L	4d-	4f	4a-
8	8CJ	.	8CJ	.	.	.
=17	=17	=17	=17	=17	=17	=17
8	4BB-	8 6 -	4BB-	4d-X	8gL	8b-L
8	.	-r7 5	.	.	8fJ	8a-XJ
8	4C	n	4C	8G	4en	4g
16	.	.	.	16A-XLL	.	.
16	.	.	.	16B-JJ	.	.
4	4FF;	-	4FF;	4A-;	4c;	4f;
4	4A	6	4A	4F	4cc	4ff
=18	=18	=18	=18	=18	=18	=18
8	8B-L	.	8B-L	8dnL	4b-	4ff
8	8cJ	.	8cJ	8e-J	.	.
8	8dL	6	8dL	8fL	4b-	4ff
8	8B-J	.	8B-J	8dJ	.	.
8	4E-	.	4E-	8e-L	4b-	4gg
8	.	.	.	8dJ	.	.
8	4A-X	6	4A-X	4c	8ccL	4ff
8	.	.	.	.	8fJ	.
=19	=19	=19	=19	=19	=19	=19
8	8GL	6 4	8GL	4c	4.g	4ee-
8	8F	.	8FJ	.	.	.
8	8G	5 n	4G	4Bn	.	4dd
8	8GGJ	.	.	.	8f	.
4	4C;	n	4C;	4G;	4en;	4cc;
=||	=||	=||	=||	=||	=||	=||
*-	*-	*-	*-	*-	*-	*-
!!!system-decoration: s1,s2,s3,s4,s5
